!!!COM: Kittel, Johann Christian
!!!CDT: 1732/02/18-1809/04/17
!!!OPR: 24 Choräle mit acht verschiedenen Bässen
!!!ONM: 5
!!!OTL@@DE: Herr Gott, dich loben alle wir
**kern	**fb	**kern	**fb	**kern	**fb	**kern	**fb	**kern	**fb	**kern	**fb	**kern	**fb	**kern	**fb	**kern
*	*slash	*	*slash	*	*slash	*	*slash	*	*slash	*	*slash	*	*slash	*	*slash	*
*	*above	*	*above	*	*above	*	*above	*	*above	*	*above	*	*above	*	*above	*
*I"8	*	*I"7	*	*I"6	*	*I"5	*	*I"4	*	*I"3	*	*I"2	*	*I"1	*	*I"c.f.
*I'8	*	*I'7	*	*I'6	*	*I'5	*	*I'4	*	*I'3	*	*I'2	*	*I'1	*	*I'c.f.
*clefF4	*	*clefF4	*	*clefF4	*	*clefF4	*	*clefF4	*	*clefF4	*	*clefF4	*	*clefF4	*	*clefG2
*k[f#c#g#]	*	*k[f#c#g#]	*	*k[f#c#g#]	*	*k[f#c#g#]	*	*k[f#c#g#]	*	*k[f#c#g#]	*	*k[f#c#g#]	*	*k[f#c#g#]	*	*k[f#c#g#]
*M4/4	*	*M4/4	*	*M4/4	*	*M4/4	*	*M4/4	*	*M4/4	*	*M4/4	*	*M4/4	*	*M4/4
*met(c)	*	*met(c)	*	*met(c)	*	*met(c)	*	*met(c)	*	*met(c)	*	*met(c)	*	*met(c)	*	*met(c)
*MM180	*	*MM180	*	*MM180	*	*MM180	*	*MM180	*	*MM180	*	*MM180	*	*MM180	*	*MM180
=1	=1	=1	=1	=1	=1	=1	=1	=1	=1	=1	=1	=1	=1	=1	=1	=1
2r	.	2r	.	2r	.	2r	.	2r	.	2r	.	2r	.	2r	.	2r
*A:	*	*A:	*	*A:	*	*A:	*	*A:	*	*A:	*	*A:	*	*A:	*	*
2AA	.	2A	.	2AA	.	2AA	.	2AA	.	2AA	.	2AA	.	2A	.	2a
=2.	=2.	=2.	=2.	=2.	=2.	=2.	=2.	=2.	=2.	=2.	=2.	=2.	=2.	=2.	=2.	=2.
*	*	*	*	*f#:	*	*	*	*	*	*	*	*	*	*	*	*
2C#	6	2E	4	2DD#	6 5	2FF#	.	2FF#	.	2BB	7	2BB	7	2F#	.	2a
*	*	*f#:	*	*	*	*	*	*	*	*	*	*	*	*	*	*
(4BB	7_ 6_ 3	2E#	3 7	2EE#	6 5	2C#	4	(4BB	6	2C#	6 5	2C#	6 5	2C#	.	2g#
4C#)	X X 3	.	.	.	.	.	3	4C#)	.	.	.	.	.	.	.	.
=3.	=3.	=3.	=3.	=3.	=3.	=3.	=3.	=3.	=3.	=3.	=3.	=3.	=3.	=3.	=3.	=3.
2.D	3 5	(4F#	.	2FF#	.	2D	9	2D	.	1D	3 5	2D	.	2D	.	2f#
.	.	4G#)	.	.	.	.	8	.	.	.	.	.	.	.	.	.
!	!	!LO:N:vis=2	!	!	!	!	!	!	!	!	!	!	!	!	!	!
.	4_ 2_	4AL	.	(4C#	.	2E	7	2E	7	.	4 2	2E	7 3	(4E	.	2e
8EL	.	4G#NJ	.	4BB)	.	.	6	.	.	.	.	.	.	4D)	.	.
8DJ	.	.	.	.	.	.	.	.	.	.	.	.	.	.	.	.
=4.	=4.	=4.	=4.	=4.	=4.	=4.	=4.	=4.	=4.	=4.	=4.	=4.	=4.	=4.	=4.	=4.
(4C#	6	1F#	3 5	2AA	6	2F#	9	2F#	3 5	2C#	6	2F#	.	2C#	6	2a
8DL	.	.	.	.	.	.	8	.	.	.	.	.	.	.	.	.
8C#J)	.	.	.	.	.	.	.	.	.	.	.	.	.	.	.	.
*	*	*	*	*A:	*	*f#:	*	*f#:	*	*	*	*	*	*	*	*
(4BB	6	.	4 2	2GG#	6	2D	6	2D	6	2BB	6	2G#	6	2BB	6	2b
8C#L	.	.	.	.	.	.	.	.	.	.	.	.	.	.	.	.
8BBJ)	.	.	.	.	.	.	.	.	.	.	.	.	.	.	.	.
=5.	=5.	=5.	=5.	=5.	=5.	=5.	=5.	=5.	=5.	=5.	=5.	=5.	=5.	=5.	=5.	=5.
1AA;	.	1E#;	6	1AA;	.	1C#;	4	1C#;	4	1AA;	.	1A;	.	1AA;	.	1cc#;
.	.	.	.	.	.	.	#	.	#	.	.	.	.	.	.	.
=6	=6	=6	=6	=6	=6	=6	=6	=6	=6	=6	=6	=6	=6	=6	=6	=6
2r	.	2r	.	2r	.	2r	.	2r	.	2r	.	2r	.	2r	.	2r
*	*	*	*	*	*	*b:	*	*	*	*	*	*	*	*	*	*
2FF#	.	(4c#	#	2AA	.	2BB	#4| 2	2F#	.	2A	6	2AA	.	2A	.	2cc#
.	.	4B)	.	.	.	.	.	.	.	.	.	.	.	.	.	.
=7.	=7.	=7.	=7.	=7.	=7.	=7.	=7.	=7.	=7.	=7.	=7.	=7.	=7.	=7.	=7.	=7.
*	*	*	*	*f#:	*	*	*	*	*	*f#:	*	*	*	*	*	*
2F#	.	(4A	6	2GG#	#6| 4 3	2AA#	6	2E#	6	2E#	6	2C#	6	2F#	.	2cc#
.	.	4G#)	.	.	.	.	.	.	.	.	.	.	.	.	.	.
*b:	*	*	*	*	*	*	*	*b:	*	*	*	*	*	*	*	*
2E	#4| n	(4F#	5 3	2FF#	5 3	2E	#4| n	2EnX	#4| n	(4F#	.	2AA	.	(4C#	6	2cc#
.	.	4E)	.	.	.	.	.	.	.	4EnX)	.	.	.	4D)	.	.
=8.	=8.	=8.	=8.	=8.	=8.	=8.	=8.	=8.	=8.	=8.	=8.	=8.	=8.	=8.	=8.	=8.
*	*	*	*	*	*	*	*	*	*	*A:	*	*	*	*	*	*
2D	6	2D	6	2D	6	2D	6	2D	6 X	2D	6	2E	8	2E	.	2b
*A:	*	*A:	*	*	*	*A:	*	*A:	*	*	*	*	*	*	*	*
.	.	.	4 2	.	4 2	.	4 2	.	4 2	.	4 2	.	7	.	.	.
2C#	6	2C#	6	2C#	6	2C#	6	2C#	6	2C#	6	2F#	9	2F#	.	2a
.	.	.	.	.	.	.	.	.	.	.	.	.	8	.	.	.
=9.	=9.	=9.	=9.	=9.	=9.	=9.	=9.	=9.	=9.	=9.	=9.	=9.	=9.	=9.	=9.	=9.
*	*	*	*	*A:	*	*	*	*	*	*	*	*	*	*	*	*
2BB	4 3	2BB	7	2F#	6	2BB	7	2BB	7	2GG#	6 5	2G#	7	2BB	5	2dd
.	.	.	6	.	.	.	6	.	6	.	.	.	6	.	6	.
2AA	.	2AA	5 3	(4E	6_ 4_	2AA	.	2AA	.	2AA	9	2A	9	(4C#	6	2cc#
.	.	.	.	4D#)	X X	.	.	.	.	.	8	.	8	4D)	.	.
=10.	=10.	=10.	=10.	=10.	=10.	=10.	=10.	=10.	=10.	=10.	=10.	=10.	=10.	=10.	=10.	=10.
1E;	4	1E;	4	1E;	4	1E;	4	1E;	4	1EE;	4	1E;	4	1E;	4	1b;
.	3	.	3	.	3	.	3	.	3	.	3	.	3	.	3	.
=11	=11	=11	=11	=11	=11	=11	=11	=11	=11	=11	=11	=11	=11	=11	=11	=11
2r	.	2r	.	2r	.	2r	.	2r	.	2r	.	2r	.	2r	.	2r
2C#	6	2F#	.	2C#	6	1F#	3 5	2F#	.	2C#	6	2F#	.	2C#	6	2a
=12.	=12.	=12.	=12.	=12.	=12.	=12.	=12.	=12.	=12.	=12.	=12.	=12.	=12.	=12.	=12.	=12.
2D	6 5	2D	6 5	2GG#	6 5	.	4 2	2G#	7	2GG#	6	2G#	6	2BB	6	2b
.	.	.	.	.	.	.	.	.	6	.	.	.	.	.	.	.
(4C#	6	(4C#	6	2AA	.	2E	6	2A	9	2AA	.	2A	.	2AA	.	2cc#
4D)	.	4D)	.	.	.	.	.	.	8	.	.	.	.	.	.	.
=13.	=13.	=13.	=13.	=13.	=13.	=13.	=13.	=13.	=13.	=13.	=13.	=13.	=13.	=13.	=13.	=13.
2E	8	2E	8	2D	4 2	2D	6	2E	4	2BB	6	2E	.	2E	.	2b
.	7	.	7	.	.	.	.	.	3	.	.	.	.	.	.	.
2F#	8	1F#	5 3	2C#	6	1C#	6	2F#	9	2C#	6	2C#	6	2F#	.	2a
.	7	.	.	.	.	.	.	.	8	.	.	.	.	.	.	.
=14.	=14.	=14.	=14.	=14.	=14.	=14.	=14.	=14.	=14.	=14.	=14.	=14.	=14.	=14.	=14.	=14.
2BB	9	.	#6|	2F#	6	.	4 2	2D	7	2D	7	2D	9	2BB	.	2f#
.	.	.	.	.	.	.	.	.	6	.	.	.	.	.	.	.
2E	8	(4E	.	(4E	.	2BB	6	2E	9	2E	7	2BB	6	2E	8	2g#
.	7	4D)	.	4D)	.	.	.	.	8	.	.	.	.	.	7	.
.	.	.	.	.	.	.	.	.	7	.	.	.	.	.	.	.
=15.	=15.	=15.	=15.	=15.	=15.	=15.	=15.	=15.	=15.	=15.	=15.	=15.	=15.	=15.	=15.	=15.
1AA;	8 3	1C#;	6	1C#;	6	1AA;	4	1AA;	8 3	1AA;	8_ 4	1AA;	4	1AA;	.	1a;
.	.	.	.	.	.	.	3	.	.	.	X 3	.	3	.	.	.
=16	=16	=16	=16	=16	=16	=16	=16	=16	=16	=16	=16	=16	=16	=16	=16	=16
2r	.	2r	.	2r	.	2r	.	2r	.	2r	.	2r	.	2r	.	2r
1r	.	2E	.	2GG#	6	2GG#	6	2GG#	6	2GG#	6	2GG#	6	2GG#	6	2ee
=17.	=17.	=17.	=17.	=17.	=17.	=17.	=17.	=17.	=17.	=17.	=17.	=17.	=17.	=17.	=17.	=17.
.	.	2A	.	2AA	.	2AA	.	2AA	.	2AA	.	2AA	.	2AA	.	2cc#
2A	.	2F#	7	(4F#	.	(4C#	6	(4D	5 3	2C#	6	2C#	6	2C#	6	2a
.	.	.	#6|	4E)	.	4AA)	.	4C#)	.	.	.	.	.	.	.	.
=18.	=18.	=18.	=18.	=18.	=18.	=18.	=18.	=18.	=18.	=18.	=18.	=18.	=18.	=18.	=18.	=18.
2G#	6	2E	.	2D.	6 5	2E	5	2BB	.	2BB	7	2D	6 5	2D	6	(4b
.	.	.	.	.	.	.	6	.	.	.	.	.	.	.	.	4cc#)
2E	7 3	4F#	6	.	6_ 5_	(4D	6	(4FF#	6	2E	7	2BB	7	2BB	.	2dd
.	.	4G#	6 5	8C#L	.	4BB)	.	4GG#)	.	.	.	.	.	.	.	.
.	.	.	.	8BBJ	X X	.	.	.	.	.	.	.	.	.	.	.
=19.	=19.	=19.	=19.	=19.	=19.	=19.	=19.	=19.	=19.	=19.	=19.	=19.	=19.	=19.	=19.	=19.
2A	.	2A	9	2E	6 4	2E	6 4	2AA	.	2AA	.	2E	6 4	2E	6 4 8_	2cc#
.	.	.	8	.	.	.	.	.	.	.	.	.	.	.	.	.
2E	8	2E	5_ 4 8_	2EE	5 3 8	2EE	5 3 8	2EE	4 8	2EE	8	2EE	5 3 8	2EE	5 3 x_	2b
.	7	.	x_ 3 x_	.	X X 7	.	X X 7	.	3 x_	.	7	.	X X 7	.	X X 7	.
.	.	.	X X 7	.	.	.	.	.	X 7	.	.	.	.	.	.	.
=20.	=20.	=20.	=20.	=20.	=20.	=20.	=20.	=20.	=20.	=20.	=20.	=20.	=20.	=20.	=20.	=20.
1AA;	8 3	1AA;	8 3	1AA;	8 3	1AA;	8 3	1AA;	8 3	1AA;	8 3	1AA;	8 3	1AA;	8 3	1a;
==	==	==	==	==	==	==	==	==	==	==	==	==	==	==	==	==
*-	*-	*-	*-	*-	*-	*-	*-	*-	*-	*-	*-	*-	*-	*-	*-	*-
!!!RDF**kern: N = cue size
!!!AGN: chorale
!!!EED: Wolfgang Drescher
!!!END: 2023/05/09
!!!ENC: Wolfgang Drescher
!!!END: 2023/05/09
!!!title: @{ONM}. @{OTL@@DE}